X: 17273
T: Here's To The Maiden Of Bashful Fifteen
R: jig
M: 6/8
K: Gmajor
GAG gfg|ede d2z|GAG gfg|e3 d2z|
GAG gfg|ede d2B|cdc BcB|AGA G3:|
|:Bcd d3|dcB A2G|Bcd ded|cBA G3|
Bcd d3|dcB A2G|Bcd efg|.B.c.A G3:|

